X:76
T:William Tell Overture
C:Gioachino Rossini
N:Tabledited by Charlie Hunt
L:1/8
Q:1/4=149
M:2/4
K:D
z4 | "G"d3d/d/ | d3d/d/ | dB GB | dB dg | dB GB | dB dg | d3d/d/ | d3d/d/ | d3d/d/ | 
d3d/d/ | "D"dd/d/ dd | dd/d/ dd | dd/d/ dd | dd/d/ dd | d4 | z4 | z4 | z3D/D/ | 
"G"DD/D/ DD/D/ | GA BD/D/ | DD/D/ GB/B/ | "D"AF DD/D/ | "G"DD/D/ DD/D/ | GA BG/B/ | 
"D"d2 z/=c/B/A/ | "G"GB Gd/d/ | dd/d/ dd/d/ | ga bd/d/ | dd/d/ gb | "D"af dd/d/ | 
"G"dd/d/ dd/d/ | ga bg/b/ | "D"d'2 z/=c'/b/a/ | "G"gb gB/B/ | "Em"BB/B/ BB/B/ | 
Be Be | Be BA | "B7"GF "Em"EB/B/ | BB/B/ BB/B/ | Be Be | Be dc | "D"dc dB/B/ | 
"Em"BB/B/ BB/B/ | Be Be | Be BA | "B7"GF "Em"EB/B/ | BB/B/ BB/B/ | Be Be | Be dc | 
"D"dc dA/A/ | AA/A/ AB | =cA2c | "G"BG2B | "D"A3A/A/ | AA/A/ AB | =cA2c | "G"BG2B | 
"D"A2 dD/D/ | "G"DD/D/ DD/D/ | GA BD/D/ | DD/D/ GB/B/ | "D"AF DD/D/ | "G"DD/D/ DD/D/ | 
GA BG/B/ | "D"d2 z/=c/B/A/ | "G"GB Gd/d/ | dd/d/ dd/d/ | ga bd/d/ | dd/d/ gb/b/ | 
"D"af dd/d/ | "G"dd/d/ dd/d/ | ga bg/b/ | "D"d'2 z/=c'/b/a/ | "G"gb g2 | g4 | 
"B"b3a | "C"gf ge | "G"d/e/d/e/ d/e/f/g/ | "D"=c/d/c/d/ c/d/e/f/ | "G"B/=c/B/c/ B/c/d/e/ | 
"A"A/B/A/B/ A/B/A/G/ | "D"F/G/F/E/ D/E/F/A/ | "G"g4 | "B"b3a | "C"gf ge | "G"d/e/d/e/ d/e/f/g/ | 
"D"=c/d/c/d/ c/d/e/f/ | "G"B/=c/B/c/ B/c/d/e/ | "D"A/B/A/e/ f/e/=c/A/ | "G"G4 | 
"Em"e/^d/e/f/ g/f/e/=c/ | B/G/E3/2F/G/E/ | "B"F/^D/B,3/2D/F/D/ | "Em"E/^D/E/F/ G/F/G/B/ | 
e/^d/e/f/ g/f/e/=c/ | B/G/E3/2F/G/E/ | "B"F/^D/B,3/2D/F/D/ | E/^D/E/F/ G/B/g/e/ | 
"B"f/^d/B3/2d/g/e/ | "B"f/^d/B3/2d/g/e/ | "B"f/^d/B "F#"c/^A/F | "B"BB/=c/ B/c/B/A/ | 
"G"G/D/D/D/ G/D/A/D/ | B/D/D/D/ B/D/=c/D/ | d/b/a/g/ f/e/d/=c/ | d/e/d/e/ d/e/f/g/ | 
"D"=c/d/c/d/ c/d/e/f/ | "G"B/=c/B/c/ B/c/d/e/ | "A"A/B/A/B/ A/B/A/G/ | "D"F/G/F/E/ D/E/F/D/ | 
"G"G/D/D/D/ G/D/A/D/ | B/D/D/D/ B/D/=c/D/ | d/b/a/g/ f/e/d/=c/ | d/e/d/e/ d/e/f/g/ | 
"D"=c/d/c/d/ c/d/e/f/ | "G"B/=c/B/c/ B/c/d/e/ | "D"A/B/A/e/ f/e/=c/A/ | "G"G3B/B/ | 
"Em"BB/B/ BB/B/ | Be Be | Be BA | "B"GF "Em"EB/B/ | BB/B/ BB/B/ | Be Be | Be dc | 
"D"dc dB/B/ | "Em"BB/B/ BB/B/ | Be Be | Be BA | "B"GF "Em"EB/B/ | BB/B/ BB/B/ | 
Be Be | "D"Be dc | dc dA/A/ | AA/A/ AB | =cA2c | "G"BG2B | "D"A3A/A/ | AA/A/ AB | 
=cA2c | "G"BG2B | "D"A2 dD/D/ | "G"DD/D/ DD/D/ | GA BD/D/ | DD/D/ GB/B/ | "D"AF DD/D/ | 
"G"DD/D/ DD/D/ | GA BG/B/ | "D"d2 z/=c/B/A/ | "G"GB Gd/d/ | dd/d/ dd/d/ | ga bd/d/ | 
dd/d/ gb/b/ | "D"af dd/d/ | "G"dd/d/ dd/d/ | ga bg/b/ | "D"d'2 z/=c'/b/a/ | "G"gb g2 | 
G,/A,/B,/=C/ B,/C/D/E/ | D/E/F/G/ F/G/A/B/ | "D"=c4 | z4 | "G"G/A/B/=c/ B/c/d/e/ | 
d/e/f/g/ f/g/a/b/ | "D"=c'4 | z4 | "G"b/b/b/b/ "D"f/f/f/f/ | "Em"g/g/g/g/ "D"a/a/a/a/ | 
"G"b/b/b/b/ "D"f/f/f/f/ | "Em"g/g/g/g/ "D"a/a/a/a/ | "Bb"^a4 | zG ^DG | "G"b4 | 
zg dg | "E"b4 | z^g eg | "Eb"c'4 | z^a ga | "G"d'c' =c'b | ag fe | "D"dc =cB | 
AG FA | "G"G3D/D/ | DD/D/ DD/D/ | GA BD/D/ | DD/D/ DD/D/ | B=c d2 | GA B2 | B,=C D2 | 
D/^D/E/=F/ ^F/G/^G/A/ | "D"^A/B/=c/^c/ d/^d/e/f/ | gf ga | "G"g/g/f/f/ "D"g/g/a/a/ | 
"G"g/g/f/f/ "D"g/g/a/a/ | "G"g/g/f/f/ "D"g/g/a/a/ | "G"gg/g/ gg | gd/d/ dd | dB/B/ BB | 
BG/G/ GG | GG/G/ GG | GD/D/ DD | DB,/B,/ B,B, | B,G,/G,/ G,G, | G,B, G,B, | B,G, DB, | 
GD GD | BG dB | g3G/G/ | GG GG | G2 z/G3/2 | G7/2G,/ | G,4 | z4 | z4 | 
 

